X:22 
T:Gramachree Is a Sup of Good Drink 
F:file ID: msist/22gram
B:MSIST.15b 
Y:"presto"
N:I'm not sure what the title is supposed to be telling us.
Q:170
L:1/8
M:12/8
R:jig
K:Dm
A|d2e f2d e^cB A2A|d2e f2g afd d2f/g/|
agf gfe fed cBA|G2A B2G AFD D2 :|
F|FGF F2f f2d cAF|G2A B2G AFD D2E|
FGF F2f f2d cAF|G2A B2G AFD D2 :|

